build/assets/fonts/f7d38984e9cfaa1bf3f98a0046862667.svg

<svg width="100" height="60" viewBox="0 0 100 60" version="1.1" xmlns="http://www.w3.org/2000/svg" xmlns:xlink="http://www.w3.org/1999/xlink"><title>Clickandbuy-dark</title><desc>Created with Sketch.</desc><g id="Dark-Payment-badges" stroke="none" stroke-width="1" fill="none" fill-rule="evenodd" transform="translate(-770.000000, -789.000000)"><g id="Clickandbuy-dark" transform="translate(770.000000, 789.000000)"><rect id="Rectangle" fill="#FF8000" x="0" y="0" width="100" height="60" rx="4"/><path d="M65.490919,18.6341514 L56.8776331,10.0665884 C56.8776331,10.0665884 55.7618475,8.95547495 54.1859625,8.95547495 C54.1859625,8.95547495 52.6102268,8.95547495 51.494292,10.0665884 C51.494292,10.0665884 50.3785064,11.1777019 50.3785064,12.7469882 C50.3785064,12.7469882 50.3785064,14.3162744 51.494292,15.4273879 L53.5889076,17.503576 L45.5529836,17.503576 C45.5529836,17.503576 43.9577041,17.503576 42.8419185,18.6243462 C42.8419185,18.6243462 41.7162864,19.7354596 41.7162864,21.3145511 C41.7162864,21.3145511 41.7162864,22.8934941 42.8419185,24.0144128 C42.8419185,24.0144128 43.9577041,25.1255263 45.5529836,25.1255263 L53.5889076,25.1255263 L51.494292,27.2113711 C51.494292,27.2113711 50.3785064,28.3224846 50.3785064,29.8917708 C50.3785064,29.8917708 50.3785064,31.461057 51.494292,32.5723191 C51.494292,32.5723191 52.6100776,33.6736273 54.1859625,33.6736273 C54.1859625,33.6736273 55.7616983,33.6736273 56.8776331,32.5723191 L65.4812217,23.9949509 C65.4812217,23.9949509 66.5970073,22.8838374 66.5970073,21.3145511 C66.5970073,21.3145511 66.5970073,19.7452649 65.490919,18.6341514" id="path7283_4_" fill="#FCFCFC"/><path d="M34.4925481,16.031748 C34.4925481,16.031748 36.5970102,16.031748 38.0847243,17.5132327 C38.0847243,17.5132327 39.5725876,18.9947173 39.5725876,21.0903674 C39.5725876,21.0903674 39.5725876,23.1858689 38.0847243,24.6675021 C38.0847243,24.6675021 36.5970102,26.1491353 34.4925481,26.1491353 C34.4925481,26.1491353 32.3882353,26.1491353 30.900372,24.6675021 C30.900372,24.6675021 29.4126578,23.1860174 29.4126578,21.0903674 C29.4126578,21.0903674 29.4126578,18.9947173 30.900372,17.5132327 C30.9005212,17.5132327 32.3882353,16.031748 34.4925481,16.031748" id="path7285_4_" fill="#FCFCFC"/><path d="M20.8469632,48.152421 C20.8469632,48.152421 20.1398067,48.2902888 19.5100793,48.2902888 C17.6505858,48.2902888 16.6056651,47.2801991 16.6056651,45.382734 L16.6056651,43.2404348 C16.6056651,41.3431182 17.6352194,40.3331771 19.5100793,40.3331771 C20.2014218,40.3331771 20.8469632,40.4708964 20.8469632,40.4708964 C21.0464291,40.5016492 21.1387772,40.6087642 21.1387772,40.7770877 L21.1387772,41.7103695 C21.1387772,41.8789902 21.0312118,41.970803 20.8469632,41.9552037 C20.8469632,41.9552037 20.1859061,41.8632423 19.6176447,41.8632423 C18.6186742,41.8632423 18.2961273,42.4447236 18.2961273,43.271039 L18.2961273,45.3366791 C18.2961273,46.1940445 18.6497055,46.760075 19.6330112,46.760075 C20.2324531,46.760075 20.8623297,46.6682622 20.8623297,46.6682622 C21.031361,46.6529601 21.1389264,46.7296193 21.1389264,46.8979428 L21.1389264,47.8312247 C21.1387772,47.9993996 21.062094,48.1065146 20.8469632,48.152421" id="path4056_4_" fill="#FCFCFC"/><path d="M23.6132283,48.1371189 L22.5066924,48.1371189 C22.3373628,48.1371189 22.2145801,48.0147018 22.2145801,47.8463782 L22.2145801,37.5636387 C22.2145801,37.394721 22.3373628,37.272601 22.5066924,37.272601 L23.6132283,37.272601 C23.7821104,37.272601 23.9050423,37.394721 23.9050423,37.5636387 L23.9050423,47.8463782 C23.9048931,48.0147018 23.7821104,48.1371189 23.6132283,48.1371189" id="path4058_4_" fill="#FCFCFC"/><path d="M26.6092447,48.1371189 L25.5030072,48.1371189 C25.3339759,48.1371189 25.2108948,48.0147018 25.2108948,47.8463782 L25.2108948,40.7769391 C25.2108948,40.6086156 25.3339759,40.4860499 25.5030072,40.4860499 L26.6092447,40.4860499 C26.7784252,40.4860499 26.9015062,40.6086156 26.9015062,40.7769391 L26.9015062,47.8463782 C26.9016554,48.0147018 26.7785743,48.1371189 26.6092447,48.1371189 M26.6092447,38.9561333 L25.5030072,38.9561333 C25.3339759,38.9561333 25.2108948,38.8337162 25.2108948,38.6655412 L25.2108948,37.5636387 C25.2108948,37.394721 25.3339759,37.272601 25.5030072,37.272601 L26.6092447,37.272601 C26.7784252,37.272601 26.9015062,37.394721 26.9015062,37.5636387 L26.9015062,38.6655412 C26.9016554,38.8337162 26.7785743,38.9561333 26.6092447,38.9561333" id="path4060_4_" fill="#FCFCFC"/><path d="M32.4485077,48.152421 C32.4485077,48.152421 31.7416495,48.2902888 31.1120714,48.2902888 C29.2524287,48.2902888 28.2076571,47.2801991 28.2076571,45.382734 L28.2076571,43.2404348 C28.2076571,41.3431182 29.2370622,40.3331771 31.1120714,40.3331771 C31.8034139,40.3331771 32.4485077,40.4708964 32.4485077,40.4708964 C32.648272,40.5016492 32.74062,40.6087642 32.74062,40.7770877 L32.74062,41.7103695 C32.74062,41.8789902 32.6330547,41.970803 32.4485077,41.9552037 C32.4485077,41.9552037 31.787749,41.8632423 31.2191892,41.8632423 C30.2205171,41.8632423 29.8976717,42.4447236 29.8976717,43.271039 L29.8976717,45.3366791 C29.8976717,46.1940445 30.2513992,46.760075 31.2347048,46.760075 C31.8338484,46.760075 32.4640234,46.6682622 32.4640234,46.6682622 C32.6329055,46.6529601 32.7404709,46.7296193 32.7404709,46.8979428 L32.7404709,47.8312247 C32.74062,47.9993996 32.6636385,48.1065146 32.4485077,48.152421" id="path4062_4_" fill="#FCFCFC"/><path d="M39.3176234,48.1371189 L38.0727892,48.1371189 C37.9039071,48.1371189 37.7657579,47.9993996 37.6887763,47.8463782 L35.5989348,43.8526688 L37.5042294,40.7769391 C37.5964283,40.6389228 37.7345774,40.4860499 37.9039071,40.4860499 L39.1487413,40.4860499 C39.3176234,40.4860499 39.4096731,40.6389228 39.3176234,40.7769391 L37.4120305,43.821916 L39.5172385,47.8463782 C39.5942201,47.9840975 39.4866547,48.1371189 39.3176234,48.1371189 M35.214922,48.1371189 L34.1083861,48.1371189 C33.939504,48.1371189 33.8162738,48.0147018 33.8162738,47.8463782 L33.8162738,37.5636387 C33.8162738,37.394721 33.939504,37.272601 34.1083861,37.272601 L35.214922,37.272601 C35.3838041,37.272601 35.5070343,37.394721 35.5070343,37.5636387 L35.5070343,47.8463782 C35.5068851,48.0147018 35.3838041,48.1371189 35.214922,48.1371189" id="path4064_4_" fill="#FCFCFC"/><path d="M43.8816177,44.9388235 L42.5909824,44.9388235 C41.7611924,44.9388235 41.4229806,45.2909212 41.4229806,45.9489131 C41.4229806,46.5302458 41.7611924,46.8670414 42.4371684,46.8670414 C42.9135293,46.8670414 43.4361389,46.6834158 43.8816177,46.4538837 L43.8816177,44.9388235 L43.8816177,44.9388235 Z M45.2798183,48.1371189 L44.2504132,48.1371189 C44.0815311,48.1371189 43.9585992,48.0147018 43.9585992,47.8463782 L43.9585992,47.7088076 C43.4667226,48.0147018 42.8214796,48.2902888 42.0989566,48.2902888 C40.6087062,48.2902888 39.7325184,47.5401869 39.7325184,45.9949681 C39.7325184,44.4186994 40.7006068,43.6384389 42.4062862,43.6384389 C42.929045,43.6384389 43.6820026,43.6992018 43.8814685,43.7304003 L43.8814685,43.1181662 C43.8814685,42.3223065 43.5280394,41.8939952 42.6215662,41.8939952 C41.7149437,41.8939952 40.5621592,42.1541315 40.5621592,42.1541315 C40.3779106,42.1998894 40.2703453,42.0777694 40.2703453,41.9091488 L40.2703453,40.9760155 C40.2703453,40.8073948 40.3779106,40.700577 40.5621592,40.654522 C40.5621592,40.654522 41.5611297,40.3333257 42.8519142,40.3333257 C44.8956563,40.3333257 45.5716323,41.2820582 45.5716323,43.1183148 L45.5716323,47.8465268 C45.5717814,48.0147018 45.4488496,48.1371189 45.2798183,48.1371189 L45.2798183,48.1371189 Z" id="path4066_4_" fill="#FCFCFC"/><path d="M52.4255307,48.1371189 L51.3192932,48.1371189 C51.1504111,48.1371189 51.02733,48.0147018 51.02733,47.8463782 L51.02733,43.0874134 C51.02733,42.3686586 50.8120501,41.9090002 49.9979249,41.9090002 C49.521564,41.9090002 48.9989544,42.1233787 48.5686929,42.3530593 L48.5686929,47.8463782 C48.5686929,48.0147018 48.4459103,48.1371189 48.2767298,48.1371189 L47.1704923,48.1371189 C47.0011626,48.1371189 46.87838,48.0147018 46.87838,47.8463782 L46.87838,40.7769391 C46.87838,40.6086156 47.0011626,40.4860499 47.1704923,40.4860499 L48.1998974,40.4860499 C48.3689287,40.4860499 48.4920097,40.6086156 48.4920097,40.7769391 L48.4920097,41.0066198 C48.9373393,40.6698242 49.598098,40.3331771 50.4736891,40.3331771 C52.148934,40.3331771 52.7173446,41.3431182 52.7173446,42.9345406 L52.7173446,47.8463782 C52.7173446,48.0147018 52.594562,48.1371189 52.4255307,48.1371189" id="path4068_4_" fill="#FCFCFC"/><path d="M57.8655636,42.1082251 C57.4508177,41.9399016 56.9898233,41.8173359 56.5749283,41.8173359 C55.7296226,41.8173359 55.4070757,42.3530593 55.4070757,43.1181662 L55.4070757,45.4899976 C55.4070757,46.2551045 55.7296226,46.7905307 56.5749283,46.7905307 C56.9898233,46.7905307 57.4508177,46.6375094 57.8655636,46.4385816 L57.8655636,42.1082251 L57.8655636,42.1082251 Z M59.2639134,48.1371189 L58.2342099,48.1371189 C58.0651786,48.1371189 57.942396,48.0147018 57.942396,47.8463782 L57.942396,47.7548625 C57.466035,48.045306 56.8822579,48.2902888 56.2214992,48.2902888 C54.5156705,48.2902888 53.7167627,47.2494463 53.7167627,45.6122661 L53.7167627,43.0107541 C53.7167627,41.3734254 54.5156705,40.3331771 56.2214992,40.3331771 C56.851525,40.3331771 57.4047183,40.5166542 57.8657127,40.7464834 L57.8657127,37.5636387 C57.8657127,37.394721 57.9887938,37.272601 58.1578251,37.272601 L59.2640626,37.272601 C59.4330939,37.272601 59.5561749,37.394721 59.5561749,37.5636387 L59.5561749,47.8463782 C59.5560257,48.0147018 59.4329447,48.1371189 59.2639134,48.1371189 L59.2639134,48.1371189 Z" id="path4070_4_" fill="#FCFCFC"/><path d="M65.0112759,43.1181662 C65.0112759,42.3532079 64.7036479,41.8173359 63.8584914,41.8173359 C63.4435964,41.8173359 62.9672355,41.9706544 62.5523405,42.1694337 L62.5523405,46.6834158 L63.7354104,46.6834158 C64.6576977,46.6834158 65.0112759,46.1787423 65.0112759,45.4134869 L65.0112759,43.1181662 L65.0112759,43.1181662 Z M63.8893736,48.1371189 L61.154289,48.1371189 C60.9849593,48.1371189 60.8621767,48.0147018 60.8621767,47.8463782 L60.8621767,37.5636387 C60.8621767,37.394721 60.9849593,37.272601 61.154289,37.272601 L62.2605265,37.272601 C62.429707,37.272601 62.5524897,37.394721 62.5524897,37.5636387 L62.5524897,40.8072463 C63.0134841,40.5319564 63.5820439,40.3331771 64.2120697,40.3331771 C65.9176,40.3331771 66.7017381,41.3735739 66.7017381,43.0107541 L66.7017381,45.4590962 C66.7015889,47.1268806 65.7945189,48.1371189 63.8893736,48.1371189 L63.8893736,48.1371189 Z" id="path4072_4_" fill="#FCFCFC"/><path d="M73.5551889,48.1371189 L72.5256347,48.1371189 C72.3566034,48.1371189 72.2336715,48.0147018 72.2336715,47.8463782 L72.2336715,47.6166976 C71.7881927,47.9537903 71.1272848,48.2902888 70.2513954,48.2902888 C68.5764489,48.2902888 68.007889,47.2801991 68.007889,45.6887768 L68.007889,40.7769391 C68.007889,40.6086156 68.1306717,40.4860499 68.3000014,40.4860499 L69.4065372,40.4860499 C69.5754194,40.4860499 69.6985004,40.6086156 69.6985004,40.7769391 L69.6985004,45.535904 C69.6985004,46.2551045 69.913482,46.7138715 70.7277563,46.7138715 C71.203968,46.7138715 71.7265776,46.5000872 72.1569883,46.270258 L72.1569883,40.7769391 C72.1569883,40.6086156 72.2799201,40.4860499 72.4488022,40.4860499 L73.5551889,40.4860499 C73.7242202,40.4860499 73.8471521,40.6086156 73.8471521,40.7769391 L73.8471521,47.8463782 C73.8471521,48.0147018 73.724071,48.1371189 73.5551889,48.1371189" id="path4074_4_" fill="#FCFCFC"/><path d="M77.9655184,50.7690866 C77.9040524,50.9221079 77.8118535,51.044525 77.6429714,51.044525 L76.397988,51.044525 C76.2291059,51.044525 76.1063233,50.9068058 76.16764,50.7540816 L77.0433803,48.198476 L74.5999605,40.7770877 C74.5541594,40.6243634 74.6465075,40.4861985 74.8307561,40.4861985 L76.0448573,40.4861985 C76.2137394,40.4861985 76.3365221,40.5936106 76.3827707,40.761637 L77.9503011,45.6124147 L79.5945146,40.761637 C79.6559805,40.6089127 79.7635459,40.4861985 79.9325772,40.4861985 L81.1466784,40.4861985 C81.330927,40.4861985 81.4383432,40.6390713 81.3770265,40.7925384 L77.9655184,50.7690866 L77.9655184,50.7690866 Z" id="path4076_4_" fill="#FCFCFC"/></g></g></svg>

<svg width="100" height="60" xmlns="http://www.w3.org/2000/svg"><g fill="none" fill-rule="evenodd"><rect fill="#FF8000" width="100" height="60" rx="4"/><path d="M65.49 18.634l-8.612-8.567s-1.116-1.112-2.692-1.112c0 0-1.576 0-2.692 1.112 0 0-1.115 1.11-1.115 2.68 0 0 0 1.57 1.115 2.68l2.095 2.077h-8.036s-1.595 0-2.711 1.12c0 0-1.126 1.111-1.126 2.69 0 0 0 1.58 1.126 2.7 0 0 1.116 1.112 2.711 1.112h8.036l-2.095 2.085s-1.115 1.111-1.115 2.68c0 0 0 1.57 1.115 2.681 0 0 1.116 1.102 2.692 1.102 0 0 1.576 0 2.692-1.102l8.603-8.577s1.116-1.111 1.116-2.68c0 0 0-1.57-1.106-2.68m-30.998-2.603s2.104 0 3.592 1.481c0 0 1.488 1.482 1.488 3.577 0 0 0 2.096-1.488 3.578 0 0-1.488 1.481-3.592 1.481 0 0-2.105 0-3.593-1.481 0 0-1.487-1.482-1.487-3.578 0 0 0-2.095 1.487-3.577 0 0 1.488-1.481 3.593-1.481m-13.646 32.12s-.707.138-1.337.138c-1.86 0-2.904-1.01-2.904-2.907V43.24c0-1.897 1.03-2.907 2.904-2.907.691 0 1.337.138 1.337.138.2.03.292.138.292.306v.933c0 .169-.108.26-.292.245 0 0-.661-.092-1.23-.092-.998 0-1.32.582-1.32 1.408v2.066c0 .857.353 1.423 1.336 1.423.6 0 1.23-.092 1.23-.092.168-.015.276.062.276.23v.933c0 .168-.077.276-.292.321m2.766-.015h-1.106a.282.282 0 0 1-.292-.29V37.563a.28.28 0 0 1 .292-.291h1.106c.17 0 .292.122.292.29v10.283a.282.282 0 0 1-.292.291m2.997.001h-1.107a.282.282 0 0 1-.292-.29v-7.07c0-.168.123-.291.292-.291h1.106c.17 0 .293.123.293.29v7.07a.282.282 0 0 1-.293.291m0-9.18h-1.106a.282.282 0 0 1-.292-.291v-1.102c0-.17.123-.291.292-.291h1.106c.17 0 .293.122.293.29v1.103c0 .168-.123.29-.293.29m5.84 9.196s-.707.138-1.337.138c-1.86 0-2.904-1.01-2.904-2.907V43.24c0-1.897 1.03-2.907 2.904-2.907.691 0 1.337.138 1.337.138.2.03.292.138.292.306v.933c0 .169-.108.26-.292.245 0 0-.661-.092-1.23-.092-.998 0-1.321.582-1.321 1.408v2.066c0 .857.353 1.423 1.337 1.423.599 0 1.229-.092 1.229-.092.169-.015.276.062.276.23v.933c0 .168-.076.276-.291.321m6.869-.015h-1.245c-.17 0-.307-.138-.384-.29l-2.09-3.994 1.905-3.076c.092-.138.23-.291.4-.291h1.245c.169 0 .26.153.169.29l-1.906 3.046 2.105 4.024c.077.138-.03.291-.2.291m-4.102 0h-1.107a.282.282 0 0 1-.292-.29V37.563c0-.17.124-.291.292-.291h1.107c.169 0 .292.122.292.29v10.283a.282.282 0 0 1-.292.291m8.667-3.197H42.59c-.83 0-1.168.352-1.168 1.01 0 .581.338.918 1.014.918.477 0 1-.184 1.445-.413v-1.515zm1.398 3.198h-1.03a.282.282 0 0 1-.291-.29v-.138c-.492.306-1.138.581-1.86.581-1.49 0-2.366-.75-2.366-2.295 0-1.576.968-2.357 2.673-2.357.523 0 1.276.061 1.475.092v-.612c0-.796-.353-1.224-1.26-1.224-.906 0-2.059.26-2.059.26-.184.046-.292-.076-.292-.245v-.933c0-.169.108-.275.292-.321 0 0 1-.322 2.29-.322 2.044 0 2.72.95 2.72 2.785v4.729c0 .168-.123.29-.292.29zm7.146 0h-1.107a.282.282 0 0 1-.292-.29v-4.76c0-.718-.215-1.178-1.03-1.178-.475 0-.998.214-1.428.444v5.493a.282.282 0 0 1-.292.291H47.17a.282.282 0 0 1-.292-.29v-7.07c0-.168.123-.291.292-.291h1.03c.169 0 .292.123.292.29v.23a3.244 3.244 0 0 1 1.982-.673c1.675 0 2.243 1.01 2.243 2.602v4.911a.281.281 0 0 1-.291.291m5.44-6.029c-.415-.168-.876-.29-1.291-.29-.845 0-1.168.535-1.168 1.3v2.372c0 .765.323 1.3 1.168 1.3.415 0 .876-.152 1.29-.351v-4.33zm1.398 6.03h-1.03a.282.282 0 0 1-.292-.292v-.091c-.476.29-1.06.535-1.72.535-1.706 0-2.505-1.04-2.505-2.678v-2.601c0-1.638.799-2.678 2.504-2.678.63 0 1.184.184 1.645.413v-3.182c0-.17.123-.291.292-.291h1.106c.17 0 .292.122.292.29v10.283a.282.282 0 0 1-.292.291zm5.747-5.02c0-.765-.307-1.3-1.153-1.3-.414 0-.89.153-1.306.351v4.514h1.183c.923 0 1.276-.504 1.276-1.27v-2.295zm-1.122 5.02h-2.735a.282.282 0 0 1-.292-.292V37.564c0-.17.123-.291.292-.291h1.107a.28.28 0 0 1 .291.29v3.244a3.245 3.245 0 0 1 1.66-.474c1.706 0 2.49 1.04 2.49 2.678v2.448c0 1.668-.907 2.678-2.813 2.678zm9.666-.001h-1.03a.282.282 0 0 1-.291-.29v-.23a3.244 3.244 0 0 1-1.983.673c-1.675 0-2.243-1.01-2.243-2.601v-4.912c0-.168.123-.291.292-.291h1.107c.168 0 .292.123.292.29v4.76c0 .72.214 1.178 1.029 1.178.476 0 .999-.214 1.429-.444v-5.493c0-.168.123-.291.292-.291h1.106c.17 0 .292.123.292.29v7.07a.282.282 0 0 1-.292.291m4.411 2.633c-.062.152-.154.275-.323.275h-1.245c-.169 0-.292-.138-.23-.29l.875-2.557-2.443-7.42c-.046-.154.047-.292.23-.292h1.215c.169 0 .292.108.338.276l1.567 4.85 1.645-4.85c.061-.153.169-.276.338-.276h1.214c.184 0 .291.153.23.307l-3.411 9.976z" fill="#FCFCFC"/></g></svg>
